app/icons/logo_white.svg

<?xml version="1.0" encoding="UTF-8" standalone="no"?>
<svg width="688px" height="300px" viewBox="0 0 688 300" version="1.1" xmlns="http://www.w3.org/2000/svg" xmlns:xlink="http://www.w3.org/1999/xlink" xmlns:sketch="http://www.bohemiancoding.com/sketch/ns">
    <!-- Generator: Sketch 3.5.2 (25235) - http://www.bohemiancoding.com/sketch -->
    <title>Logo-White</title>
    <desc>Created with Sketch.</desc>
    <defs>
        <path id="path-1" d="M0,0.405555556 L687.28356,0.405555556 L687.28356,300 L0,300"></path>
        <path id="path-3" d="M0,0.405555556 L687.28356,0.405555556 L687.28356,300 L0,300 L0,0.405555556 Z"></path>
    </defs>
    <g id="Desktop" stroke="none" stroke-width="1" fill="none" fill-rule="evenodd" sketch:type="MSPage">
        <g id="1-Landing" sketch:type="MSArtboardGroup" transform="translate(-455.000000, -280.000000)">
            <g id="Logo-White" sketch:type="MSLayerGroup" transform="translate(455.000000, 280.000000)">
                <path d="M26.5523062,262.828333 L19.0057853,276.104259 L11.5074257,262.828333 L0.000555708466,262.828333 L13.9025292,285.626481 L13.9025292,299.261667 L23.999752,299.261667 L23.999752,285.472778 L37.8461546,262.828333 L26.5523062,262.828333 Z" id="Fill-1" fill="#FEFEFE" sketch:type="MSShapeGroup"></path>
                <g id="Group-39">
                    <g id="Group-4">
                        <mask id="mask-2" sketch:name="Clip 3" fill="white">
                            <use xlink:href="#path-1"></use>
                        </mask>
                        <g id="Clip-3"></g>
                        <path d="M65.5906408,281.15963 L65.5906408,281.044815 C65.5906408,275.739259 61.841461,271.213333 56.2695574,271.213333 C50.6995062,271.213333 47.0021926,275.687407 47.0021926,280.948519 L47.0021926,281.044815 C47.0021926,286.298519 50.8106479,290.891111 56.375142,290.891111 C61.8970318,290.891111 65.5906408,286.413333 65.5906408,281.15963 M36.6975052,281.15963 L36.6975052,281.044815 C36.6975052,270.587407 45.1276027,262.098519 56.375142,262.098519 C67.620829,262.098519 75.9490466,270.483704 75.9490466,280.948519 L75.9490466,281.044815 C75.9490466,291.507778 67.5189491,300.00037 56.2695574,300.00037 C45.0238704,300.00037 36.6975052,291.60963 36.6975052,281.15963" id="Fill-2" fill="#FEFEFE" sketch:type="MSShapeGroup" mask="url(#mask-2)"></path>
                    </g>
                    <path d="M81.796952,283.284444 L81.796952,262.828889 L91.9979071,262.828889 L91.9979071,283.078889 C91.9979071,288.336296 94.6541935,290.828889 98.7164224,290.828889 C102.828665,290.828889 105.483099,288.434444 105.483099,283.341852 L105.483099,262.828889 L115.689611,262.828889 L115.689611,283.025185 C115.689611,294.732593 108.969244,299.943704 98.6108378,299.943704 C88.3042981,299.943704 81.796952,294.693704 81.796952,283.284444" id="Fill-5" fill="#FEFEFE" sketch:type="MSShapeGroup"></path>
                    <path d="M139.004916,280.318704 C142.392885,280.318704 144.421221,278.650185 144.421221,275.99463 L144.421221,275.89463 C144.421221,272.98537 142.285448,271.53537 138.960459,271.53537 L132.29381,271.53537 L132.29381,280.318704 L139.004916,280.318704 Z M122.19103,262.829815 L139.429107,262.829815 C144.991748,262.829815 148.848365,264.279815 151.300892,266.73537 C153.429255,268.866852 154.527706,271.627963 154.527706,275.216852 L154.527706,275.318704 C154.527706,280.948333 151.554665,284.639074 147.031198,286.563148 L155.724331,299.261296 L144.108172,299.261296 L136.774672,288.231667 L132.29381,288.231667 L132.29381,299.261296 L122.19103,299.261296 L122.19103,262.829815 Z" id="Fill-7" fill="#FEFEFE" sketch:type="MSShapeGroup"></path>
                    <path d="M171.128199,281.145185 L171.128199,281.043333 C171.128199,270.432222 179.456417,262.098889 190.703956,262.098889 C197.10757,262.098889 201.634742,264.034074 205.483949,267.36 L199.556392,274.545185 C196.950119,272.352593 194.40127,271.11 190.755822,271.11 C185.496968,271.11 181.431034,275.474815 181.431034,281.043333 L181.431034,281.145185 C181.431034,287.085926 185.545129,291.300741 191.324497,291.300741 C193.823333,291.300741 195.705332,290.776667 197.157584,289.793333 L197.157584,285.369259 L190.025992,285.369259 L190.025992,277.98037 L206.736146,277.98037 L206.736146,294.315556 C202.885086,297.552593 197.568808,299.993333 190.913273,299.993333 C179.563854,299.993333 171.128199,292.193333 171.128199,281.145185" id="Fill-9" fill="#FEFEFE" sketch:type="MSShapeGroup"></path>
                    <path d="M230.166852,280.318704 C233.54556,280.318704 235.575748,278.650185 235.575748,276.003889 L235.575748,275.89463 C235.575748,272.974259 233.44368,271.520556 230.111281,271.520556 L223.450189,271.520556 L223.450189,280.318704 L230.166852,280.318704 Z M213.341852,262.829815 L230.578076,262.829815 C236.151832,262.829815 240.002892,264.292778 242.453566,266.73537 C244.591192,268.866852 245.68038,271.627963 245.68038,275.216852 L245.68038,275.324259 C245.68038,280.939074 242.70734,284.639074 238.183873,286.570556 L246.875153,299.261296 L235.262699,299.261296 L227.927347,288.226111 L223.450189,288.226111 L223.450189,299.261296 L213.341852,299.261296 L213.341852,262.829815 Z" id="Fill-11" fill="#FEFEFE" sketch:type="MSShapeGroup"></path>
                    <path d="M271.188325,284.839815 L267.131653,274.543519 L263.023115,284.839815 L271.188325,284.839815 Z M262.343298,262.567593 L272.081163,262.567593 L287.590986,299.262037 L276.760228,299.262037 L274.161365,292.700926 L260.048223,292.700926 L257.447507,299.262037 L246.874227,299.262037 L262.343298,262.567593 Z" id="Fill-13" fill="#FEFEFE" sketch:type="MSShapeGroup"></path>
                    <path d="M293.781949,271.67963 L282.90303,271.67963 L282.90303,262.82963 L314.813662,262.82963 L314.813662,271.67963 L303.881024,271.67963 L303.881024,299.262963 L293.781949,299.262963 L293.781949,271.67963 Z" id="Fill-15" fill="#FEFEFE" sketch:type="MSShapeGroup"></path>
                    <path d="M321.330456,262.829074 L350.645929,262.829074 L350.645929,271.362407 L331.327651,271.362407 L331.327651,276.93463 L348.823206,276.93463 L348.823206,284.903148 L331.327651,284.903148 L331.327651,290.680926 L350.903408,290.680926 L350.903408,299.262407 L321.330456,299.262407 L321.330456,262.829074 Z" id="Fill-17" fill="#FEFEFE" sketch:type="MSShapeGroup"></path>
                    <path d="M357.408161,262.829074 L386.568036,262.829074 L386.568036,271.679074 L367.509088,271.679074 L367.509088,277.87537 L384.741608,277.87537 L384.741608,286.255 L367.509088,286.255 L367.509088,299.262407 L357.408161,299.262407 L357.408161,262.829074 Z" id="Fill-19" fill="#FEFEFE" sketch:type="MSShapeGroup"></path>
                    <path d="M393.026295,283.284444 L393.026295,262.828889 L403.229102,262.828889 L403.229102,283.078889 C403.229102,288.336296 405.876127,290.828889 409.936503,290.828889 C414.050598,290.828889 416.708737,288.434444 416.708737,283.336296 L416.708737,262.828889 L426.915249,262.828889 L426.915249,283.025185 C426.915249,294.736296 420.196734,299.943704 409.842033,299.943704 C399.531789,299.943704 393.026295,294.693704 393.026295,283.284444" id="Fill-21" fill="#FEFEFE" sketch:type="MSShapeGroup"></path>
                    <path d="M433.427226,262.829074 L443.524449,262.829074 L443.524449,290.421667 L461.175602,290.421667 L461.175602,299.262407 L433.427226,299.262407 L433.427226,262.829074 Z" id="Fill-23" fill="#FEFEFE" sketch:type="MSShapeGroup"></path>
                    <path d="M478.770259,262.109444 L488.198779,262.109444 L503.191793,281.357593 L503.191793,262.109444 L513.187136,262.109444 L513.187136,298.539074 L504.395828,298.539074 L488.776716,278.54463 L488.776716,298.539074 L478.770259,298.539074 L478.770259,262.109444 Z" id="Fill-25" fill="#FEFEFE" sketch:type="MSShapeGroup"></path>
                    <path d="M541.320063,284.12 L537.257834,273.816296 L533.140034,284.12 L541.320063,284.12 Z M532.467627,261.836667 L542.19623,261.836667 L557.720872,298.538519 L546.888262,298.538519 L544.287546,291.971852 L530.172551,291.971852 L527.579245,298.538519 L517.007817,298.538519 L532.467627,261.836667 Z" id="Fill-27" fill="#FEFEFE" sketch:type="MSShapeGroup"></path>
                    <path d="M564.279343,270.949074 L553.407833,270.949074 L553.407833,262.110185 L585.312909,262.110185 L585.312909,270.949074 L574.383976,270.949074 L574.383976,298.537963 L564.279343,298.537963 L564.279343,270.949074 Z" id="Fill-29" fill="#FEFEFE" sketch:type="MSShapeGroup"></path>
                    <mask id="mask-4" sketch:name="Clip 32" fill="white">
                        <use xlink:href="#path-3"></use>
                    </mask>
                    <g id="Clip-32"></g>
                    <path d="M591.825812,262.109259 L601.923035,262.109259 L601.923035,298.538889 L591.825812,298.538889 L591.825812,262.109259 Z" id="Fill-31" fill="#FEFEFE" sketch:type="MSShapeGroup" mask="url(#mask-4)"></path>
                    <path d="M636.662409,280.428889 L636.662409,280.317778 C636.662409,275.006667 632.907672,270.484444 627.350587,270.484444 C621.771274,270.484444 618.07396,274.952963 618.07396,280.204815 L618.07396,280.317778 C618.07396,285.56963 621.876859,290.158519 627.450615,290.158519 C632.965095,290.158519 636.662409,285.678889 636.662409,280.428889 M607.772978,280.428889 L607.772978,280.317778 C607.772978,269.86037 616.199371,261.375185 627.450615,261.375185 C638.692597,261.375185 647.024519,269.745556 647.024519,280.204815 L647.024519,280.317778 C647.024519,290.777037 638.590717,299.262222 627.350587,299.262222 C616.093786,299.262222 607.772978,290.89 607.772978,280.428889" id="Fill-33" fill="#FEFEFE" sketch:type="MSShapeGroup" mask="url(#mask-4)"></path>
                    <path d="M652.874277,262.109444 L662.287978,262.109444 L677.288402,281.357593 L677.288402,262.109444 L687.283745,262.109444 L687.283745,298.539074 L678.481323,298.539074 L662.864063,278.54463 L662.864063,298.539074 L652.874277,298.539074 L652.874277,262.109444 Z" id="Fill-34" fill="#FEFEFE" sketch:type="MSShapeGroup" mask="url(#mask-4)"></path>
                    <path d="M290.809835,40.9451852 C273.625477,28.8248148 252.662301,14.8896296 228.488983,0.406296296 L228.488983,51.4118519 C228.488983,51.4118519 268.399965,72.8988889 312.497284,111.032222 L290.809835,40.9451852 Z" id="Fill-35" fill="#FEFEFE" sketch:type="MSShapeGroup" mask="url(#mask-4)"></path>
                    <path d="M396.550042,40.9451852 L374.862593,111.034074 C418.959912,72.8988889 458.870894,51.4118519 458.870894,51.4118519 L458.870894,0.406296296 C434.697576,14.8896296 413.7344,28.8266667 396.550042,40.9451852" id="Fill-36" fill="#FEFEFE" sketch:type="MSShapeGroup" mask="url(#mask-4)"></path>
                    <path d="M343.679939,211.801852 L317.74132,127.977778 C277.026413,89.7444444 228.488983,61.5796296 228.488983,61.5796296 L228.488983,112.392593 C228.488983,112.392593 310.724574,153.903704 343.681791,235.437037 C376.635303,153.903704 458.870894,112.392593 458.870894,112.392593 L458.870894,61.5796296 C458.870894,61.5796296 410.331612,89.7462963 369.618557,127.981481 L343.679939,211.801852 Z" id="Fill-37" fill="#FEFEFE" sketch:type="MSShapeGroup" mask="url(#mask-4)"></path>
                    <path d="M348.680018,39.8509259 L368.441011,0.947222222 L318.919977,0.947222222 L338.68097,39.8509259 L325.494009,127.05463 L343.674937,186.978704 L343.680494,186.958333 L361.865128,127.05463 L348.680018,39.8509259 Z" id="Fill-38" fill="#FEFEFE" sketch:type="MSShapeGroup" mask="url(#mask-4)"></path>
                </g>
            </g>
        </g>
    </g>
</svg>

<svg width="688" height="300" viewBox="0 0 688 300" xmlns="http://www.w3.org/2000/svg"><title>Logo-White</title><g fill="#FEFEFE" fill-rule="evenodd"><path d="M26.552 262.828l-7.546 13.276-7.5-13.276H.002l13.903 22.798v13.636H24v-13.79l13.846-22.644H26.552zM65.59 281.16v-.115c0-5.306-3.75-9.832-9.32-9.832s-9.268 4.474-9.268 9.736v.094c0 5.254 3.81 9.846 9.373 9.846 5.522 0 9.216-4.477 9.216-9.73m-28.89 0v-.115c0-10.458 8.43-18.946 19.676-18.946 11.246 0 19.574 8.383 19.574 18.85v.094c0 10.463-8.43 18.955-19.68 18.955-11.246 0-19.572-8.39-19.572-18.84m45.1 2.124V262.83h10.2v20.25c0 5.256 2.656 7.75 6.72 7.75 4.11 0 6.765-2.396 6.765-7.488V262.83h10.207v20.195c0 11.708-6.72 16.92-17.08 16.92-10.306 0-16.813-5.25-16.813-16.66m57.208-2.965c3.388 0 5.416-1.67 5.416-4.325v-.1c0-2.91-2.134-4.36-5.46-4.36h-6.665v8.784h6.71zm-16.814-17.49h17.24c5.563 0 9.42 1.45 11.87 3.905 2.13 2.132 3.23 4.893 3.23 8.482v.102c0 5.627-2.974 9.32-7.498 11.242l8.694 12.698H144.11l-7.333-11.028h-4.48v11.03H122.19V262.83zm48.938 18.315v-.102c0-10.61 8.328-18.944 19.576-18.944 6.404 0 10.93 1.933 14.78 5.26l-5.928 7.184c-2.606-2.192-5.155-3.435-8.8-3.435-5.26 0-9.325 4.364-9.325 9.932v.102c0 5.94 4.116 10.156 9.895 10.156 2.5 0 4.38-.523 5.834-1.507v-4.424h-7.133v-7.39h16.71v16.335c-3.85 3.237-9.167 5.677-15.823 5.677-11.35 0-19.785-7.8-19.785-18.848m59.037-.824c3.38 0 5.41-1.67 5.41-4.316v-.11c0-2.92-2.133-4.373-5.466-4.373h-6.66v8.8h6.718zm-16.825-17.49h17.236c5.574 0 9.425 1.463 11.876 3.905 2.137 2.132 3.226 4.893 3.226 8.482v.107c0 5.615-2.973 9.315-7.496 11.247l8.69 12.69h-11.61l-7.337-11.033h-4.477v11.035h-10.108v-36.43zm57.846 22.01l-4.056-10.296-4.11 10.296h8.166zm-8.845-22.272h9.738l15.51 36.694h-10.83l-2.6-6.56h-14.11l-2.6 6.56h-10.574l15.47-36.694zm31.44 9.112h-10.88v-8.85h31.91v8.85H303.88v27.583h-10.098V271.68zm27.547-8.85h29.316v8.532h-19.318v5.573h17.495v7.968h-17.495v5.778h19.575v8.583H321.33V262.83zm36.078 0h29.16v8.85h-19.06v6.195h17.234v8.38H367.51v13.007h-10.102V262.83zm35.618 20.454V262.83h10.203v20.25c0 5.256 2.645 7.75 6.706 7.75 4.114 0 6.772-2.396 6.772-7.494V262.83h10.205v20.195c0 11.71-6.718 16.92-17.073 16.92-10.31 0-16.816-5.25-16.816-16.66m40.403-20.455h10.097v27.592h17.652v8.84h-27.75V262.83zm45.343-.72h9.43l14.992 19.248v-19.25h9.995v36.43h-8.79l-15.62-19.993v19.994H478.77v-36.43zm62.55 22.01l-4.062-10.304-4.118 10.304h8.18zm-8.852-22.283h9.728l15.525 36.702h-10.83l-2.6-6.57h-14.115l-2.594 6.568h-10.57l15.46-36.703zm31.812 9.113h-10.872v-8.84h31.905v8.84h-10.93v27.588H564.28v-27.59zm27.546-8.84h10.097v36.43h-10.097v-36.43zm44.836 18.32v-.112c0-5.31-3.754-9.834-9.31-9.834-5.58 0-9.278 4.47-9.278 9.72v.114c0 5.252 3.803 9.84 9.377 9.84 5.516 0 9.213-4.48 9.213-9.73m-28.89 0v-.11c0-10.458 8.427-18.943 19.68-18.943 11.24 0 19.573 8.37 19.573 18.83v.113c0 10.46-8.434 18.944-19.674 18.944-11.256 0-19.577-8.372-19.577-18.833m45.1-18.32h9.413l15 19.248v-19.25h9.996v36.43h-8.803l-15.615-19.993v19.994h-9.99v-36.43zM290.81 40.945c-17.185-12.12-38.148-26.055-62.32-40.54v51.007s39.91 21.487 84.007 59.62L290.81 40.945zm105.74 0l-21.687 70.09C418.96 72.898 458.87 51.41 458.87 51.41V.406c-24.172 14.484-45.136 28.42-62.32 40.54"/><path d="M343.68 211.802l-25.94-83.824c-40.714-38.234-89.25-66.398-89.25-66.398v50.813s82.235 41.51 115.192 123.044c32.953-81.533 115.19-123.044 115.19-123.044V61.58s-48.54 28.166-89.253 66.4l-25.94 83.822z"/><path d="M348.68 39.85L368.44.948h-49.52l19.76 38.904-13.186 87.205 18.18 59.924.006-.02 18.185-59.904L348.68 39.85z"/></g></svg>
